src/assets/hearts_6.svg

<?xml version="1.0" encoding="UTF-8"?>
<svg xmlns="http://www.w3.org/2000/svg" xmlns:xlink="http://www.w3.org/1999/xlink" width="99px" height="140px" viewBox="0 0 99 140" version="1.1">
<defs>
<g>
<symbol overflow="visible" id="glyph0-0">
<path style="stroke:none;" d="M 0.8125 2.9375 L 0.8125 -11.71875 L 9.015625 -11.71875 L 9.015625 2.9375 Z M 1.734375 2.015625 L 8.109375 2.015625 L 8.109375 -10.78125 L 1.734375 -10.78125 Z M 1.734375 2.015625 "/>
</symbol>
<symbol overflow="visible" id="glyph0-1">
<path style="stroke:none;" d="M 5.9375 -5.984375 C 5.394531 -5.984375 4.988281 -5.804688 4.71875 -5.453125 C 4.445312 -5.097656 4.3125 -4.566406 4.3125 -3.859375 C 4.3125 -3.148438 4.445312 -2.617188 4.71875 -2.265625 C 4.988281 -1.910156 5.394531 -1.734375 5.9375 -1.734375 C 6.476562 -1.734375 6.882812 -1.910156 7.15625 -2.265625 C 7.425781 -2.617188 7.5625 -3.148438 7.5625 -3.859375 C 7.5625 -4.566406 7.425781 -5.097656 7.15625 -5.453125 C 6.882812 -5.804688 6.476562 -5.984375 5.9375 -5.984375 Z M 9.75 -11.796875 L 9.75 -9.5625 C 9.238281 -9.800781 8.757812 -9.976562 8.3125 -10.09375 C 7.863281 -10.21875 7.425781 -10.28125 7 -10.28125 C 6.082031 -10.28125 5.363281 -10.019531 4.84375 -9.5 C 4.332031 -8.976562 4.035156 -8.210938 3.953125 -7.203125 C 4.304688 -7.460938 4.6875 -7.660156 5.09375 -7.796875 C 5.507812 -7.929688 5.960938 -8 6.453125 -8 C 7.671875 -8 8.65625 -7.632812 9.40625 -6.90625 C 10.15625 -6.1875 10.53125 -5.238281 10.53125 -4.0625 C 10.53125 -2.757812 10.109375 -1.71875 9.265625 -0.9375 C 8.429688 -0.15625 7.3125 0.234375 5.90625 0.234375 C 4.351562 0.234375 3.148438 -0.296875 2.296875 -1.359375 C 1.441406 -2.421875 1.015625 -3.929688 1.015625 -5.890625 C 1.015625 -7.890625 1.507812 -9.460938 2.5 -10.609375 C 3.5 -11.753906 4.867188 -12.328125 6.609375 -12.328125 C 7.160156 -12.328125 7.691406 -12.28125 8.203125 -12.1875 C 8.722656 -12.101562 9.238281 -11.972656 9.75 -11.796875 Z M 9.75 -11.796875 "/>
</symbol>
<symbol overflow="visible" id="glyph1-0">
<path style="stroke:none;" d="M -0.8125 -2.9375 L -0.8125 11.71875 L -9.015625 11.71875 L -9.015625 -2.9375 Z M -1.734375 -2.015625 L -8.109375 -2.015625 L -8.109375 10.78125 L -1.734375 10.78125 Z M -1.734375 -2.015625 "/>
</symbol>
<symbol overflow="visible" id="glyph1-1">
<path style="stroke:none;" d="M -5.9375 5.984375 C -5.394531 5.984375 -4.988281 5.804688 -4.71875 5.453125 C -4.445312 5.097656 -4.3125 4.566406 -4.3125 3.859375 C -4.3125 3.148438 -4.445312 2.617188 -4.71875 2.265625 C -4.988281 1.910156 -5.394531 1.734375 -5.9375 1.734375 C -6.476562 1.734375 -6.882812 1.910156 -7.15625 2.265625 C -7.425781 2.617188 -7.5625 3.148438 -7.5625 3.859375 C -7.5625 4.566406 -7.425781 5.097656 -7.15625 5.453125 C -6.882812 5.804688 -6.476562 5.984375 -5.9375 5.984375 Z M -9.75 11.796875 L -9.75 9.5625 C -9.238281 9.800781 -8.757812 9.976562 -8.3125 10.09375 C -7.863281 10.21875 -7.425781 10.28125 -7 10.28125 C -6.082031 10.28125 -5.363281 10.019531 -4.84375 9.5 C -4.332031 8.976562 -4.035156 8.210938 -3.953125 7.203125 C -4.304688 7.460938 -4.6875 7.660156 -5.09375 7.796875 C -5.507812 7.929688 -5.960938 8 -6.453125 8 C -7.671875 8 -8.65625 7.632812 -9.40625 6.90625 C -10.15625 6.1875 -10.53125 5.238281 -10.53125 4.0625 C -10.53125 2.757812 -10.109375 1.71875 -9.265625 0.9375 C -8.429688 0.15625 -7.3125 -0.234375 -5.90625 -0.234375 C -4.351562 -0.234375 -3.148438 0.296875 -2.296875 1.359375 C -1.441406 2.421875 -1.015625 3.929688 -1.015625 5.890625 C -1.015625 7.890625 -1.507812 9.460938 -2.5 10.609375 C -3.5 11.753906 -4.867188 12.328125 -6.609375 12.328125 C -7.160156 12.328125 -7.691406 12.28125 -8.203125 12.1875 C -8.722656 12.101562 -9.238281 11.972656 -9.75 11.796875 Z M -9.75 11.796875 "/>
</symbol>
</g>
</defs>
<g id="surface1">
<path style="fill-rule:nonzero;fill:rgb(100%,100%,100%);fill-opacity:1;stroke-width:0.755906;stroke-linecap:butt;stroke-linejoin:miter;stroke:rgb(50.196078%,50.196078%,50.196078%);stroke-opacity:1;stroke-miterlimit:4;" d="M 9.297585 719.743103 L 224.702415 719.743103 C 229.632812 719.743103 233.621449 723.747651 233.621449 728.681329 L 233.621449 1043.042991 C 233.621449 1047.976669 229.632812 1051.981217 224.702415 1051.981217 L 9.297585 1051.981217 C 4.367188 1051.981217 0.378551 1047.976669 0.378551 1043.042991 L 0.378551 728.681329 C 0.378551 723.747651 4.367188 719.743103 9.297585 719.743103 Z M 9.297585 719.743103 " transform="matrix(0.423077,0,0,0.42042,0,-302.434542)"/>
<path style=" stroke:none;fill-rule:nonzero;fill:rgb(100%,0%,0%);fill-opacity:1;" d="M 7.273438 25.789062 C 6.902344 24.992188 6.417969 24.246094 5.84375 23.578125 C 5.472656 23.148438 5.066406 22.753906 4.65625 22.367188 C 4.332031 22.0625 4.003906 21.761719 3.742188 21.40625 C 3.5625 21.164062 3.414062 20.894531 3.34375 20.605469 C 3.214844 20.074219 3.355469 19.507812 3.617188 19.03125 C 3.773438 18.753906 3.96875 18.5 4.210938 18.296875 C 4.574219 17.992188 5.042969 17.8125 5.511719 17.851562 C 5.9375 17.886719 6.339844 18.105469 6.652344 18.402344 C 6.925781 18.667969 7.140625 18.996094 7.277344 19.355469 C 7.417969 18.996094 7.632812 18.667969 7.90625 18.402344 C 8.21875 18.105469 8.621094 17.886719 9.046875 17.851562 C 9.515625 17.8125 9.984375 17.992188 10.347656 18.296875 C 10.589844 18.5 10.785156 18.753906 10.941406 19.03125 C 11.203125 19.507812 11.34375 20.074219 11.214844 20.605469 C 11.144531 20.894531 10.996094 21.164062 10.816406 21.40625 C 10.554688 21.761719 10.226562 22.0625 9.902344 22.367188 C 9.492188 22.753906 9.085938 23.148438 8.714844 23.578125 C 8.140625 24.246094 7.65625 24.992188 7.285156 25.789062 "/>
<path style=" stroke:none;fill-rule:nonzero;fill:rgb(100%,0%,0%);fill-opacity:1;" d="M 91.714844 114.210938 C 91.34375 115.007812 90.859375 115.753906 90.285156 116.421875 C 89.914062 116.851562 89.507812 117.246094 89.097656 117.632812 C 88.773438 117.9375 88.445312 118.238281 88.183594 118.59375 C 88.003906 118.835938 87.855469 119.105469 87.785156 119.394531 C 87.65625 119.925781 87.796875 120.492188 88.058594 120.96875 C 88.214844 121.246094 88.410156 121.5 88.652344 121.703125 C 89.015625 122.007812 89.484375 122.1875 89.953125 122.148438 C 90.378906 122.113281 90.78125 121.894531 91.09375 121.597656 C 91.367188 121.332031 91.582031 121.003906 91.722656 120.644531 C 91.859375 121.003906 92.074219 121.332031 92.347656 121.597656 C 92.660156 121.894531 93.0625 122.113281 93.488281 122.148438 C 93.957031 122.1875 94.425781 122.007812 94.789062 121.703125 C 95.03125 121.5 95.226562 121.246094 95.382812 120.96875 C 95.644531 120.492188 95.785156 119.925781 95.65625 119.394531 C 95.585938 119.105469 95.4375 118.835938 95.257812 118.59375 C 94.996094 118.238281 94.667969 117.9375 94.34375 117.632812 C 93.933594 117.246094 93.527344 116.851562 93.15625 116.421875 C 92.582031 115.753906 92.097656 115.007812 91.726562 114.210938 "/>
<path style=" stroke:none;fill-rule:nonzero;fill:rgb(100%,0%,0%);fill-opacity:1;" d="M 24.792969 39.820312 C 23.667969 37.425781 22.21875 35.1875 20.496094 33.191406 C 19.386719 31.902344 18.167969 30.714844 16.929688 29.550781 C 15.964844 28.640625 14.980469 27.738281 14.191406 26.667969 C 13.65625 25.945312 13.210938 25.140625 13 24.265625 C 12.617188 22.679688 13.035156 20.976562 13.824219 19.550781 C 14.285156 18.71875 14.875 17.949219 15.605469 17.339844 C 16.6875 16.433594 18.097656 15.890625 19.5 16.007812 C 20.78125 16.117188 21.984375 16.769531 22.917969 17.664062 C 23.75 18.457031 24.394531 19.445312 24.804688 20.523438 C 25.214844 19.445312 25.859375 18.457031 26.691406 17.664062 C 27.628906 16.769531 28.828125 16.117188 30.113281 16.007812 C 31.511719 15.890625 32.921875 16.433594 34.003906 17.339844 C 34.734375 17.949219 35.324219 18.71875 35.785156 19.550781 C 36.574219 20.976562 36.992188 22.679688 36.609375 24.265625 C 36.398438 25.140625 35.953125 25.945312 35.417969 26.667969 C 34.628906 27.738281 33.644531 28.640625 32.679688 29.550781 C 31.441406 30.714844 30.222656 31.902344 29.113281 33.191406 C 27.390625 35.1875 25.941406 37.425781 24.820312 39.820312 "/>
<path style=" stroke:none;fill-rule:nonzero;fill:rgb(100%,0%,0%);fill-opacity:1;" d="M 24.792969 81.914062 C 23.667969 79.519531 22.21875 77.28125 20.496094 75.285156 C 19.386719 73.996094 18.167969 72.808594 16.929688 71.644531 C 15.964844 70.734375 14.980469 69.832031 14.191406 68.761719 C 13.65625 68.039062 13.210938 67.234375 13 66.359375 C 12.617188 64.773438 13.035156 63.070312 13.824219 61.644531 C 14.285156 60.8125 14.875 60.042969 15.605469 59.433594 C 16.6875 58.527344 18.097656 57.984375 19.5 58.101562 C 20.78125 58.210938 21.984375 58.863281 22.917969 59.757812 C 23.75 60.550781 24.394531 61.535156 24.804688 62.617188 C 25.214844 61.535156 25.859375 60.550781 26.691406 59.757812 C 27.628906 58.863281 28.828125 58.210938 30.113281 58.101562 C 31.511719 57.984375 32.921875 58.527344 34.003906 59.433594 C 34.734375 60.042969 35.324219 60.8125 35.785156 61.644531 C 36.574219 63.070312 36.992188 64.773438 36.609375 66.359375 C 36.398438 67.234375 35.953125 68.039062 35.417969 68.761719 C 34.628906 69.832031 33.644531 70.734375 32.679688 71.644531 C 31.441406 72.808594 30.222656 73.996094 29.113281 75.285156 C 27.390625 77.28125 25.941406 79.519531 24.820312 81.914062 "/>
<path style=" stroke:none;fill-rule:nonzero;fill:rgb(100%,0%,0%);fill-opacity:1;" d="M 74.179688 39.820312 C 73.058594 37.425781 71.609375 35.1875 69.886719 33.191406 C 68.777344 31.902344 67.558594 30.714844 66.320312 29.550781 C 65.355469 28.640625 64.371094 27.738281 63.582031 26.667969 C 63.046875 25.945312 62.601562 25.140625 62.390625 24.265625 C 62.007812 22.679688 62.425781 20.976562 63.214844 19.550781 C 63.675781 18.71875 64.265625 17.949219 64.996094 17.339844 C 66.078125 16.433594 67.488281 15.890625 68.886719 16.007812 C 70.171875 16.117188 71.371094 16.769531 72.308594 17.664062 C 73.140625 18.457031 73.785156 19.445312 74.195312 20.523438 C 74.605469 19.445312 75.25 18.457031 76.082031 17.664062 C 77.015625 16.769531 78.21875 16.117188 79.5 16.007812 C 80.902344 15.890625 82.3125 16.433594 83.394531 17.339844 C 84.125 17.949219 84.714844 18.71875 85.175781 19.550781 C 85.964844 20.976562 86.382812 22.679688 86 24.265625 C 85.789062 25.140625 85.34375 25.945312 84.808594 26.667969 C 84.019531 27.738281 83.035156 28.640625 82.070312 29.550781 C 80.832031 30.714844 79.613281 31.902344 78.503906 33.191406 C 76.78125 35.1875 75.332031 37.425781 74.207031 39.820312 "/>
<path style=" stroke:none;fill-rule:nonzero;fill:rgb(100%,0%,0%);fill-opacity:1;" d="M 74.179688 81.914062 C 73.058594 79.519531 71.609375 77.28125 69.886719 75.285156 C 68.777344 73.996094 67.558594 72.808594 66.320312 71.644531 C 65.355469 70.734375 64.371094 69.832031 63.582031 68.761719 C 63.046875 68.039062 62.601562 67.234375 62.390625 66.359375 C 62.007812 64.773438 62.425781 63.070312 63.214844 61.644531 C 63.675781 60.8125 64.265625 60.042969 64.996094 59.433594 C 66.078125 58.527344 67.488281 57.984375 68.886719 58.101562 C 70.171875 58.210938 71.371094 58.863281 72.308594 59.757812 C 73.140625 60.550781 73.785156 61.535156 74.195312 62.617188 C 74.605469 61.535156 75.25 60.550781 76.082031 59.757812 C 77.015625 58.863281 78.21875 58.210938 79.5 58.101562 C 80.902344 57.984375 82.3125 58.527344 83.394531 59.433594 C 84.125 60.042969 84.714844 60.8125 85.175781 61.644531 C 85.964844 63.070312 86.382812 64.773438 86 66.359375 C 85.789062 67.234375 85.34375 68.039062 84.808594 68.761719 C 84.019531 69.832031 83.035156 70.734375 82.070312 71.644531 C 80.832031 72.808594 79.613281 73.996094 78.503906 75.285156 C 76.78125 77.28125 75.332031 79.519531 74.207031 81.914062 "/>
<path style=" stroke:none;fill-rule:nonzero;fill:rgb(100%,0%,0%);fill-opacity:1;" d="M 24.792969 100.179688 C 23.667969 102.574219 22.21875 104.8125 20.496094 106.808594 C 19.386719 108.097656 18.167969 109.285156 16.929688 110.449219 C 15.964844 111.359375 14.980469 112.261719 14.191406 113.332031 C 13.65625 114.054688 13.210938 114.859375 13 115.734375 C 12.617188 117.320312 13.035156 119.023438 13.824219 120.449219 C 14.285156 121.28125 14.875 122.050781 15.605469 122.660156 C 16.6875 123.566406 18.097656 124.109375 19.5 123.992188 C 20.78125 123.882812 21.984375 123.230469 22.917969 122.335938 C 23.75 121.542969 24.394531 120.554688 24.804688 119.476562 C 25.214844 120.554688 25.859375 121.542969 26.691406 122.335938 C 27.628906 123.230469 28.828125 123.882812 30.113281 123.992188 C 31.511719 124.109375 32.921875 123.566406 34.003906 122.660156 C 34.734375 122.050781 35.324219 121.28125 35.785156 120.449219 C 36.574219 119.023438 36.992188 117.320312 36.609375 115.734375 C 36.398438 114.859375 35.953125 114.054688 35.417969 113.332031 C 34.628906 112.261719 33.644531 111.359375 32.679688 110.449219 C 31.441406 109.285156 30.222656 108.097656 29.113281 106.808594 C 27.390625 104.8125 25.941406 102.574219 24.820312 100.179688 "/>
<path style=" stroke:none;fill-rule:nonzero;fill:rgb(100%,0%,0%);fill-opacity:1;" d="M 74.179688 100.179688 C 73.058594 102.574219 71.609375 104.8125 69.886719 106.808594 C 68.777344 108.097656 67.558594 109.285156 66.320312 110.449219 C 65.355469 111.359375 64.371094 112.261719 63.582031 113.332031 C 63.046875 114.054688 62.601562 114.859375 62.390625 115.734375 C 62.007812 117.320312 62.425781 119.023438 63.214844 120.449219 C 63.675781 121.28125 64.265625 122.050781 64.996094 122.660156 C 66.078125 123.566406 67.488281 124.109375 68.886719 123.992188 C 70.171875 123.882812 71.371094 123.230469 72.308594 122.335938 C 73.140625 121.542969 73.785156 120.554688 74.195312 119.476562 C 74.605469 120.554688 75.25 121.542969 76.082031 122.335938 C 77.015625 123.230469 78.21875 123.882812 79.5 123.992188 C 80.902344 124.109375 82.3125 123.566406 83.394531 122.660156 C 84.125 122.050781 84.714844 121.28125 85.175781 120.449219 C 85.964844 119.023438 86.382812 117.320312 86 115.734375 C 85.789062 114.859375 85.34375 114.054688 84.808594 113.332031 C 84.019531 112.261719 83.035156 111.359375 82.070312 110.449219 C 80.832031 109.285156 79.613281 108.097656 78.503906 106.808594 C 76.78125 104.8125 75.332031 102.574219 74.207031 100.179688 "/>
<g style="fill:rgb(100%,0%,0%);fill-opacity:1;">
  <use xlink:href="#glyph0-1" x="2.261719" y="15.034964"/>
</g>
<g style="fill:rgb(100%,0%,0%);fill-opacity:1;">
  <use xlink:href="#glyph1-1" x="96.738281" y="124.965036"/>
</g>
</g>
</svg>

<svg xmlns="http://www.w3.org/2000/svg" xmlns:xlink="http://www.w3.org/1999/xlink" width="99" height="140"><defs><symbol id="a" overflow="visible"><path d="M5.938-5.984c-.543 0-.95.18-1.22.53-.273.356-.405.888-.405 1.595 0 .71.132 1.242.406 1.593.27.356.676.532 1.218.532.54 0 .946-.176 1.22-.532.269-.351.405-.882.405-1.593 0-.707-.136-1.239-.406-1.594-.273-.352-.68-.531-1.218-.531Zm3.812-5.813v2.235a8.639 8.639 0 0 0-1.438-.532A4.885 4.885 0 0 0 7-10.28c-.918 0-1.637.261-2.156.781-.512.523-.809 1.29-.89 2.297a4.18 4.18 0 0 1 1.14-.594A4.43 4.43 0 0 1 6.454-8c1.218 0 2.202.367 2.952 1.094.75.718 1.125 1.668 1.125 2.843 0 1.305-.422 2.344-1.265 3.125C8.43-.155 7.312.234 5.906.234c-1.554 0-2.758-.53-3.61-1.593-.855-1.063-1.28-2.57-1.28-4.532 0-2 .492-3.57 1.484-4.718 1-1.145 2.367-1.72 4.11-1.72.55 0 1.081.048 1.593.142.52.085 1.035.214 1.547.39Zm0 0" style="stroke:none"/></symbol><symbol id="b" overflow="visible"><path d="M-5.938 5.984c.543 0 .95-.18 1.22-.53.273-.356.405-.888.405-1.595 0-.71-.132-1.242-.406-1.593-.27-.356-.676-.532-1.218-.532-.54 0-.946.176-1.22.532-.269.351-.405.882-.405 1.593 0 .707.136 1.239.406 1.594.273.352.68.531 1.218.531Zm-3.812 5.813V9.562c.512.239.992.415 1.438.532.449.125.886.187 1.312.187.918 0 1.637-.261 2.156-.781.512-.523.809-1.29.89-2.297a4.18 4.18 0 0 1-1.14.594A4.43 4.43 0 0 1-6.454 8c-1.218 0-2.202-.367-2.952-1.094-.75-.718-1.125-1.668-1.125-2.843 0-1.305.422-2.344 1.265-3.125.836-.782 1.954-1.172 3.36-1.172 1.554 0 2.758.53 3.61 1.593.855 1.063 1.28 2.57 1.28 4.532 0 2-.492 3.57-1.484 4.718-1 1.145-2.367 1.72-4.11 1.72a8.83 8.83 0 0 1-1.593-.142 9.547 9.547 0 0 1-1.547-.39Zm0 0" style="stroke:none"/></symbol></defs><path d="M9.298 719.743h215.404c4.93 0 8.92 4.005 8.92 8.938v314.362c0 4.934-3.99 8.938-8.92 8.938H9.298c-4.93 0-8.92-4.004-8.92-8.938V728.681c0-4.933 3.99-8.938 8.92-8.938Zm0 0" style="fill-rule:nonzero;fill:#fff;fill-opacity:1;stroke-width:.755906;stroke-linecap:butt;stroke-linejoin:miter;stroke:gray;stroke-opacity:1;stroke-miterlimit:4" transform="matrix(.42308 0 0 .42042 0 -302.435)"/><path d="M7.273 25.79a9.65 9.65 0 0 0-1.43-2.212 16.55 16.55 0 0 0-1.187-1.21c-.324-.305-.652-.606-.914-.962a2.267 2.267 0 0 1-.398-.8c-.13-.532.011-1.098.273-1.575a2.64 2.64 0 0 1 .594-.734c.363-.305.832-.485 1.3-.445.426.035.829.253 1.141.55.274.266.489.594.625.953.141-.359.356-.687.63-.953.312-.297.714-.515 1.14-.55.469-.04.937.14 1.3.445.243.203.438.457.594.734.262.477.403 1.043.274 1.574-.07.29-.219.56-.399.801-.261.356-.59.657-.914.961-.41.387-.816.781-1.187 1.211a9.65 9.65 0 0 0-1.43 2.211M91.715 114.21a9.65 9.65 0 0 1-1.43 2.212c-.37.43-.777.824-1.187 1.21-.325.305-.653.606-.914.962-.18.242-.329.511-.399.8-.129.532.012 1.098.274 1.575.156.277.351.531.593.734.364.305.832.484 1.301.445.426-.035.828-.253 1.14-.55.274-.266.489-.594.63-.953.136.359.351.687.625.953.312.297.715.515 1.14.55.469.04.938-.14 1.301-.445a2.64 2.64 0 0 0 .594-.734c.262-.477.402-1.043.273-1.574a2.267 2.267 0 0 0-.398-.801c-.262-.356-.59-.656-.914-.961a16.55 16.55 0 0 1-1.188-1.211 9.65 9.65 0 0 1-1.43-2.211M24.793 39.82a29.097 29.097 0 0 0-4.297-6.629c-1.11-1.289-2.328-2.476-3.566-3.64-.965-.91-1.95-1.813-2.739-2.883-.535-.723-.98-1.527-1.191-2.402-.383-1.586.035-3.29.824-4.715.461-.832 1.051-1.602 1.781-2.211 1.082-.906 2.493-1.45 3.895-1.332 1.281.11 2.484.762 3.418 1.656a7.778 7.778 0 0 1 1.887 2.86 7.778 7.778 0 0 1 1.886-2.86c.938-.894 2.137-1.547 3.422-1.656 1.399-.117 2.809.426 3.89 1.332.731.61 1.321 1.379 1.782 2.21.79 1.427 1.207 3.13.824 4.716-.21.875-.656 1.68-1.191 2.402-.79 1.07-1.773 1.973-2.738 2.883-1.239 1.164-2.457 2.351-3.567 3.64a28.95 28.95 0 0 0-4.293 6.63M24.793 81.914a29.097 29.097 0 0 0-4.297-6.629c-1.11-1.289-2.328-2.476-3.566-3.64-.965-.91-1.95-1.813-2.739-2.883-.535-.723-.98-1.528-1.191-2.403-.383-1.586.035-3.289.824-4.714.461-.833 1.051-1.602 1.781-2.211 1.082-.907 2.493-1.45 3.895-1.332 1.281.109 2.484.761 3.418 1.656a7.746 7.746 0 0 1 1.887 2.86 7.746 7.746 0 0 1 1.886-2.86c.938-.895 2.137-1.547 3.422-1.656 1.399-.118 2.809.425 3.89 1.332.731.609 1.321 1.379 1.782 2.21.79 1.426 1.207 3.13.824 4.715-.21.875-.656 1.68-1.191 2.403-.79 1.07-1.773 1.972-2.738 2.883-1.239 1.164-2.457 2.351-3.567 3.64a28.95 28.95 0 0 0-4.293 6.63M74.18 39.82a28.95 28.95 0 0 0-4.293-6.629c-1.11-1.289-2.328-2.476-3.567-3.64-.965-.91-1.949-1.813-2.738-2.883-.535-.723-.98-1.527-1.191-2.402-.383-1.586.035-3.29.824-4.715.46-.832 1.05-1.602 1.781-2.211 1.082-.906 2.492-1.45 3.89-1.332 1.286.11 2.485.762 3.423 1.656a7.778 7.778 0 0 1 1.886 2.86 7.778 7.778 0 0 1 1.887-2.86c.934-.894 2.137-1.547 3.418-1.656 1.402-.117 2.813.426 3.895 1.332.73.61 1.32 1.379 1.78 2.21.79 1.427 1.208 3.13.825 4.716-.21.875-.656 1.68-1.191 2.402-.79 1.07-1.774 1.973-2.739 2.883-1.238 1.164-2.457 2.351-3.566 3.64a29.097 29.097 0 0 0-4.297 6.63M74.18 81.914a28.95 28.95 0 0 0-4.293-6.629c-1.11-1.289-2.328-2.476-3.567-3.64-.965-.91-1.949-1.813-2.738-2.883-.535-.723-.98-1.528-1.191-2.403-.383-1.586.035-3.289.824-4.714.46-.833 1.05-1.602 1.781-2.211 1.082-.907 2.492-1.45 3.89-1.332 1.286.109 2.485.761 3.423 1.656a7.746 7.746 0 0 1 1.886 2.86 7.746 7.746 0 0 1 1.887-2.86c.934-.895 2.137-1.547 3.418-1.656 1.402-.118 2.813.425 3.895 1.332.73.609 1.32 1.379 1.78 2.21.79 1.426 1.208 3.13.825 4.715-.21.875-.656 1.68-1.191 2.403-.79 1.07-1.774 1.972-2.739 2.883-1.238 1.164-2.457 2.351-3.566 3.64a29.097 29.097 0 0 0-4.297 6.63M24.793 100.18a29.097 29.097 0 0 1-4.297 6.629c-1.11 1.289-2.328 2.476-3.566 3.64-.965.91-1.95 1.813-2.739 2.883-.535.723-.98 1.527-1.191 2.402-.383 1.586.035 3.29.824 4.715.461.832 1.051 1.602 1.781 2.211 1.082.906 2.493 1.45 3.895 1.332 1.281-.11 2.484-.762 3.418-1.656a7.778 7.778 0 0 0 1.887-2.86 7.778 7.778 0 0 0 1.886 2.86c.938.894 2.137 1.547 3.422 1.656 1.399.117 2.809-.426 3.89-1.332.731-.61 1.321-1.379 1.782-2.21.79-1.427 1.207-3.13.824-4.716-.21-.875-.656-1.68-1.191-2.402-.79-1.07-1.773-1.973-2.738-2.883-1.239-1.164-2.457-2.351-3.567-3.64a28.95 28.95 0 0 1-4.293-6.63M74.18 100.18a28.95 28.95 0 0 1-4.293 6.629c-1.11 1.289-2.328 2.476-3.567 3.64-.965.91-1.949 1.813-2.738 2.883-.535.723-.98 1.527-1.191 2.402-.383 1.586.035 3.29.824 4.715.46.832 1.05 1.602 1.781 2.211 1.082.906 2.492 1.45 3.89 1.332 1.286-.11 2.485-.762 3.423-1.656a7.778 7.778 0 0 0 1.886-2.86 7.778 7.778 0 0 0 1.887 2.86c.934.894 2.137 1.547 3.418 1.656 1.402.117 2.813-.426 3.895-1.332.73-.61 1.32-1.379 1.78-2.21.79-1.427 1.208-3.13.825-4.716-.21-.875-.656-1.68-1.191-2.402-.79-1.07-1.774-1.973-2.739-2.883-1.238-1.164-2.457-2.351-3.566-3.64a29.097 29.097 0 0 1-4.297-6.63" style="stroke:none;fill-rule:nonzero;fill:red;fill-opacity:1"/><use xlink:href="#a" x="2.262" y="15.035" style="fill:red;fill-opacity:1"/><use xlink:href="#b" x="96.738" y="124.965" style="fill:red;fill-opacity:1"/></svg>
